!!!COM: Haydn, Franz Joseph
!!!OTL: String Quartet in D major
!!!OPS: Opus 1
!!!ONM: No. 3
!!!OMD: Adagio
!!!OMV: 1
!!!SCT: H III:3
!!!SCA: Thematisch-bibliographisches Werkevererzeichnis (A. van Hoboken)
!!!YOR: Bremner Edition, 1772
!!!ENC: Frances Bennion
!!!CDT: 1732/3/31/-1809/5/31/
!!!CNT: Oesterreich
!!!YEC: Copyright (c) 1994, 2000 Center for Computer Assisted Research in the Humanities
!!!YEM: Rights to all derivative editions reserved.
!!!YEM: Refer to licensing agreement for further details.
!!!YEN: United States of America
**kern	**kern	**kern	**kern
*k[f#c#]	*k[f#c#]	*k[f#c#]	*k[f#c#]
*D:	*D:	*D:	*D:
*clefF4	*clefC3	*clefF	*clefF
*M3/4	*M3/4	*M3/4	*M3/4
8D	8f#	2.r	[2.aa
8D	8f#	.	.
8D	8f#	.	.
8D	8f#	.	.
8D	8f#	.	.
8D	8f#	.	.
=2	=2	=2	=2
8C#	8e	2.r	2.aa_
8C#	8e	.	.
8C#	8e	.	.
8C#	8e	.	.
8E	8g	.	.
8E	8g	.	.
=3	=3	=3	=3
8D	8f#	2.r	4.aa]
8D	8f#	.	.
8D	8f#	.	.
8D	8f#	.	16gg
.	.	.	16ff#
8D	8f#	.	16ee
.	.	.	16dd
8D	8f#	.	16cc#
.	.	.	16dd
=4	=4	=4	=4
8D	8g	2.r	4b
8D	8g	.	.
8D	8f#	.	4a
8D	8f#	.	.
8D	8f#	.	8.r
8D	8f#	.	.
.	.	.	16dd
=5	=5	=5	=5
8D	8g	2.r	4b
8D	8g	.	.
8D	8f#	.	8a
8D	8f#	.	16dd
.	.	.	16cc#
8D	8f#	.	16ff#
.	.	.	16dd
8D	8f#	.	16cc#
.	.	.	16dd
=6	=6	=6	=6
8AA	8e	2.r	4g
8AA	8e	.	.
8D	8d	.	4f#
8D	8d	.	.
8F#	8d	.	8r
8F#	8d	.	8dd
=7	=7	=7	=7
8G	8d	2.r	[4e
8G	8d	.	.
8A	8c#	.	8e]
8A	8c#	.	16g
.	.	.	16f#
8AA	8c#	.	8g
8AA	8c#	.	16f#
.	.	.	16e
=8	=8	=8	=8
8D	8d	[2.a	8.f#
8D	8d	.	.
.	.	.	16e
8D	8f#	.	4d
8D	8f#	.	.
8D	8f#	.	4r
8D	8f#	.	.
=9	=9	=9	=9
8C#	8e	2.a_	2.r
8C#	8e	.	.
8C#	8e	.	.
8C#	8e	.	.
8E	8g	.	.
8E	8g	.	.
=10	=10	=10	=10
8D	8f#	4.a]	2.r
8D	8F#	.	.
8D	8F#	.	.
8D	8F#	16g	.
.	.	16f#	.
8D	8F#	16e	.
.	.	16d	.
8D	8F#	16c#	.
.	.	16d	.
=11	=11	=11	=11
8D	8G	4B	2.r
8D	8G	.	.
8D	8F#	4A	.
8D	8F#	.	.
8D	8f#	8.r	.
8D	8f#	.	.
.	.	16dd	.
=12	=12	=12	=12
8D	8g	4b	2.r
8D	8g	.	.
8D	8f#	8a	.
8D	8f#	16dd	.
.	.	16cc#	.
8D	8f#	16ff#	.
.	.	16dd	.
8D	8f#	16cc#	.
.	.	16dd	.
=13	=13	=13	=13
8AA	8e	4g	2.r
8AA	8e	.	.
8D	8d	4f#	.
8D	8d	.	.
8F#	8d	8r	.
8F#	8d	8dd	.
=14	=14	=14	=14
8G	8B	4e	2.r
8G	8B	.	.
8G	8B	8e	.
8G	8B	8bb	.
8G	8B	8gg	.
8G#	8B	8ee	.
=15	=15	=15	=15
8A	8A	8.cc#	[4ee
8A	8A	.	.
.	.	16b	.
8A	8A	4a	16ee]
.	.	.	16aa
8A	8e	.	16gg#
.	.	.	16bb
8A	8e	4r	16aa
.	.	.	16ccc#
8A	8e	.	16cc#
.	.	.	16ee
=16	=16	=16	=16
8B	8B	4a	8.dd
8B	8B	.	.
.	.	.	16cc#
8B	8B	16a	[2dd
.	.	16dd	.
8B	8f#	16cc#	.
.	.	16ee	.
8B	8f#	16dd	.
.	.	16ff#	.
8B	8f#	16f#	.
.	.	16a	.
=17	=17	=17	=17
8E	8e	8.g#	4dd]
8E	8e	.	.
.	.	16f#	.
8E	8B	2g#	16dd
.	.	.	16gg#
8E	8B	.	16gg#
.	.	.	16bb
8E	8B	.	16bb
.	.	.	16gg#
8E	8B	.	16ee
.	.	.	16dd
=18	=18	=18	=18
8A	8A	4g	8.cc#
8A	8A	.	.
.	.	.	16b
8A	8A	16g	[2cc#
.	.	16cc#	.
8A	8A	16cc#	.
.	.	16ee	.
8A	8A	16ee	.
.	.	16cc#	.
8A	8A	16a	.
.	.	16g	.
=19	=19	=19	=19
8D	8d	8.f#	4cc#_
8D	8d	.	.
.	.	16e	.
8D	8d	2f#	16cc#]
.	.	.	16b
8D	8d	.	16dd
.	.	.	16cc#
8D#	8d#	.	8ff#
8D#	8d#	.	8a
=20	=20	=20	=20
8E	4e	16e	4g#
.	.	16bb	.
8E	.	16bb	.
.	.	16gg#	.
8E	2dd	16gg#	4..gg#
.	.	16ee	.
8E	.	16ee	.
.	.	16b	.
8E	.	16b	.
.	.	16g#	.
8E	.	16g#	.
.	.	16e	32aa
.	.	.	32bb
=21	=21	=21	=21
8E	4cc#	16a	4aa
.	.	16aa	.
8E	.	16aa	.
.	.	16ee	.
8E	4.cc#	16ee	4..aa
.	.	16cc#	.
8E	.	16cc#	.
.	.	16a	.
8E	.	16ee	.
.	.	16cc#	.
8E	8a	16cc#	.
.	.	16a	32bb
.	.	.	32ccc#
=22	=22	=22	=22
8E	4g#	16e	4bb
.	.	16bb	.
8E	.	16bb	.
.	.	16gg#	.
8E	[4g#	16gg#	4..bb
.	.	16ee	.
8E	.	16ee	.
.	.	16b	.
8E	8.g#]	16b	.
.	.	16g#	.
8E	.	16g#	.
.	32a	16e	32ccc#
.	32b	.	32ddd
=23	=23	=23	=23
4AA	4a	4a	8ccc#
.	.	.	8eee
4r	4r	4r	16eee
.	.	.	16ccc#
.	.	.	16ccc#
.	.	.	16aa
4E	16e	16e	16ee
.	16g#	16b	16ddd
.	16g#	16b	16ddd
.	16g#	16b	16ddd
=24	=24	=24	=24
4A	4a	4a	8ccc#
.	.	.	8eee
4r	4r	4r	16eee
.	.	.	16ccc#
.	.	.	16ccc#
.	.	.	16aa
4E	16e	16g#	16ee
.	16g#	16b	16ddd
.	16g#	16b	16ddd
.	16g#	16b	16ddd
=25	=25	=25	=25
4A	4a	4a	16ccc#
.	.	.	16eee
.	.	.	16ddd
.	.	.	16ccc#
2r	2r	2r	16ddd
.	.	.	16eee
.	.	.	16fff#
.	.	.	16ggg#
.	.	.	4aaa
=26	=26	=26	=26
8D	8d	8.d	8.f#
8D	8d	.	.
.	.	16b	16dd
8E	8e	4a	4cc#
8E	8e	.	.
8E	8e	4g#	4b
8E	8e	.	.
=27	=27	=27	=27
8AA	8A	4.a	4.a
8AA	8A	.	.
8AA	8A	.	.
8AA	8A	16ff#	16aa
.	.	16ee	16gg#
8AA	8A	16ee	16gg#
.	.	16dd	16ff#
8AA	8A	16dd	16ff#
.	.	16cc#	16ee
=28	=28	=28	=28
8AA	8A	16cc#	16ee
.	.	16b	16dd
8AA	8A	16b	16dd
.	.	16a	16cc#
8AA	8A	16a	16cc#
.	.	16dd	16ff#
8AA	8A	16dd	16ff#
.	.	16cc#	16ee
8AA	8A	16cc#	16ee
.	.	16b	16dd
8AA	8A	16b	16dd
.	.	16a	16cc#
=29	=29	=29	=29
4F#	4f#	4a	4cc#
4D#	4f#	4a	4b
4r	4r	4r	4r
=30	=30	=30	=30
8E	8e	4a	[4b
8E	8e	.	.
8E	8e	8g#	8b]
8E	8e	8g#	16dd
.	.	.	16cc#
8E	8e	8g#	8dd
8E	8e	8g#	16cc#
.	.	.	16b
=31	=31	=31	=31
8AA	16e	16a	4a
.	16c#	16e	.
8AA	16B	16d	.
.	16A	16c#	.
8AA	2B	2d	16r
.	.	.	16f#
8AA	.	.	16dd
.	.	.	16cc#
8AA	.	.	16dd
.	.	.	16b
8AA	.	.	16a
.	.	.	16g#
=32	=32	=32	=32
8AA	16E	16c#	4a
.	16c#	16e	.
8AA	16B	16d	.
.	16A	16c#	.
8AA	2B	2d	16r
.	.	.	16f#
8AA	.	.	16dd
.	.	.	16cc#
8AA	.	.	16dd
.	.	.	16b
8AA	.	.	16a
.	.	.	16g#
=33	=33	=33	=33
4AA	4A	4c#	4a
4A	2r	4A	4A
4r	.	4r	4r
=34	=34	=34	=34
8AA	2.r	16aa	[2.aa
.	.	16ee	.
8A	.	16dd	.
.	.	16cc#	.
8C#	.	16ee	.
.	.	16cc#	.
8A	.	16b	.
.	.	16a	.
8E	.	16cc#	.
.	.	16a	.
8A	.	16g#	.
.	.	16a	.
=35	=35	=35	=35
4AA	8A	4A	16aa]
.	.	.	16ee
.	8a	.	16ee
.	.	.	16dd
2r	8c#	2r	16dd
.	.	.	16cc#
.	8a	.	16cc#
.	.	.	16b
.	8e	.	16b
.	.	.	16a
.	8a	.	16g#
.	.	.	16a
=36	=36	=36	=36
8BB	4B	16aa	[2.aa
.	.	16ff#	.
8A	.	16ee	.
.	.	16dd#	.
8D#	2r	16ff#	.
.	.	16dd#	.
8A	.	16cc#	.
.	.	16b	.
8F#	.	16dd#	.
.	.	16b	.
8A	.	16a#	.
.	.	16b	.
=37	=37	=37	=37
4BB	8B	4B	16aa]
.	.	.	16gg
.	8a	.	16gg
.	.	.	16ff#
2r	8d#	2r	16ff#
.	.	.	16ee
.	8a	.	16ee
.	.	.	16dd#
.	8f#	.	16dd#
.	.	.	16cc
.	8a	.	16cc
.	.	.	16b
=38	=38	=38	=38
8E	4B	16gg	[2.gg
.	.	16ee	.
8B	.	16dd#	.
.	.	16ee	.
8G	2r	16ee	.
.	.	16b	.
8B	.	16a	.
.	.	16g	.
8E	.	16b	.
.	.	16g	.
8B	.	16f#	.
.	.	16e	.
=39	=39	=39	=39
4AA	8A	4a	16gg]
.	.	.	16ff#
.	8a	.	16ff#
.	.	.	16ee
2r	8c#	2r	16ee
.	.	.	16dd
.	8a	.	16dd
.	.	.	16cc#
.	8e	.	16cc#
.	.	.	16b
.	8a	.	16a
.	.	.	16gg
=40	=40	=40	=40
8D	8d	8r	4ff#
8D	16f#	16a	.
.	16e	16g	.
8D	16e	16g	8r
.	16d	16f#	.
8D	8d	8f#	16aa
.	.	.	16ff#
8D	4r	4r	16ddd
.	.	.	16aa
8D	.	.	16gg
.	.	.	16ff#
=41	=41	=41	=41
8A	8r	8r	4ee
8A	16cc#	16ee	.
.	16b	16dd	.
8A	16b	16dd	8r
.	16a	16cc#	.
8A	8a	8cc#	16ee
.	.	.	16cc#
8A#	4r	4r	16ccc#
.	.	.	16ee
8A#	.	.	16dd
.	.	.	16cc#
=42	=42	=42	=42
8B	8r	8r	4dd
8B	16f#	16dd	.
.	16e	16cc#	.
8B	16e	16cc#	8r
.	16d	16b	.
8B	8d	8b	16ff#
.	.	.	16dd
8B	4r	4r	16bb
.	.	.	16ff#
8B	.	.	16ee
.	.	.	16dd
=43	=43	=43	=43
8F#	8r	8r	4cc#
8F#	8f#	8a#	.
8F#	16f#	16a#	[2ff#
.	16g#	16b	.
8F#	16g#	16b	.
.	16a#	16cc#	.
8F#	8a#	8cc#	.
8F#	16f#	8a#	.
.	16e	.	.
=44	=44	=44	=44
8F#	8d	8b	2.ff#_
8F#	8d	8b	.
8F#	16d	16b	.
.	16c#	16cc#	.
8F#	16c#	16cc#	.
.	16B	16dd	.
8F#	8B	8dd	.
8F#	8B	8b	.
=45	=45	=45	=45
8F#	8A#	8cc#	2.ff#_
8F#	8a#	8cc#	.
8F#	16a#	16cc#	.
.	16b	16dd	.
8F#	16b	16dd	.
.	16cc#	16ee	.
8F#	8cc#	8ee	.
8F#	8a#	8cc#	.
=46	=46	=46	=46
8BB	8b	8dd	16ff#]
.	.	.	16gg
8BB	8B	8d	16gg
.	.	.	16ff#
8BB	8B	8d	16ff#
.	.	.	16ee
8BB	8B	8d	16ee
.	.	.	16dd
8BB	8B	8d	16dd
.	.	.	16cc#
8BB	8B	8d	16cc#
.	.	.	16b
=47	=47	=47	=47
4E	4e	4b	4gg
4E	4g	4cc#	4aa#
4r	4r	4r	4r
=48	=48	=48	=48
8D	8f#	8b	4bb
8D	8f#	8b	.
8D	8f#	8b	16bb
.	.	.	16aa#
8D	8f#	8b	16bb
.	.	.	16ccc#
8D	8f#	8b	16ddd
.	.	.	16bb
8D	8f#	8b	16aa#
.	.	.	16bb
=49	=49	=49	=49
8E	8e	8.ee	8.gg
8E	8e	.	.
.	.	32dd	32ff#
.	.	32cc#	32ee
8F#	8f#	4b	4dd
8F#	8f#	.	.
8FF#	8F#	4a#	4cc#
8FF#	8F#	.	.
=50	=50	=50	=50
8BB	8B	4b	4b
8BB	8B	.	.
8B	8f#	[2dd	2r
8B	8f#	.	.
8A	8f	.	.
8A	8f	.	.
=51	=51	=51	=51
8G#	8e	16dd]	4r
.	.	16bb	.
8G#	8e	16bb	.
.	.	16aa	.
8G#	8e	16aa	2bb
.	.	16gg#	.
8G#	8e	16gg#	.
.	.	16ff	.
8G#	8e	16ff	.
.	.	16ee	.
8G#	8e	16ee	.
.	.	16dd	.
=52	=52	=52	=52
8A	8e	4cc#	4aa
8A	8e	.	.
8A	8e	[2cc	2r
8A	8e	.	.
8G	8e-	.	.
8G	8e-	.	.
=53	=53	=53	=53
8F#	8d	16cc]	4r
.	.	16aa	.
8F#	8d	16aa	.
.	.	16gg	.
8F#	8d	16gg	[2aa
.	.	16ff#	.
8F#	8d	16ff#	.
.	.	16ee	.
8F#	8d	16ee	.
.	.	16dd	.
8F#	8d	16dd	.
.	.	16cc	.
=54	=54	=54	=54
8G	8g	8b	16aa]
.	.	.	16bb
8G	8g	8b	16bb
.	.	.	16aa
8G	8g	8b	16aa
.	.	.	16gg
8G	8g	8b	16gg
.	.	.	16ff#
8G	8g	8b	16ff#
.	.	.	16ee
8G	8g	[8b	16ee
.	.	.	16dd#
=55	=55	=55	=55
8G	8g	16b]	16ee
.	.	16ee	16gg
8G	8g	16ee	16gg
.	.	16gg	16bb
8G	8g	16gg	16bb
.	.	16ff#	16aa
8G	8g	16ff#	16aa
.	.	16ee	16gg
8G#	8g#	16ee	16gg
.	.	16dd	16ff#
8G#	8g#	16cc#	16ee
.	.	16dd	16ff#
=56	=56	=56	=56
8A	8a	4dd	4ff#
8AA	8A	.	.
8A	8a	4cc#	4ee
8G	8g	.	.
8F#	8f#	4r	4r
8E	8e	.	.
=57	=57	=57	=57
8D	8f#	2.r	[2.aa
8D	8f#	.	.
8D	8f#	.	.
8D	8f#	.	.
8D	8f#	.	.
8D	8f#	.	.
=58	=58	=58	=58
8C#	8e	2.r	2.aa_
8C#	8e	.	.
8C#	8e	.	.
8C#	8e	.	.
8E	8g	.	.
8E	8g	.	.
=59	=59	=59	=59
8D	8f#	2.r	4.aa]
8D	8f#	.	.
8D	8f#	.	.
8D	8f#	.	16gg
.	.	.	16ff#
8D	8f#	.	16ee
.	.	.	16dd
8D	8f#	.	16cc#
.	.	.	16dd
=60	=60	=60	=60
8D	8g	2.r	4b
8D	8g	.	.
8D	8f#	.	4a
8D	8f#	.	.
8D	8f#	.	8.r
8D	8f#	.	.
.	.	.	16dd
=61	=61	=61	=61
8D	8g	2.r	4b
8D	8g	.	.
8D	8f#	.	8a
8D	8f#	.	16dd
.	.	.	16cc#
8D	8f#	.	16ff#
.	.	.	16dd
8D	8f#	.	16cc#
.	.	.	16dd
=62	=62	=62	=62
8AA	8e	2.r	4g
8AA	8e	.	.
8D	8d	.	4f#
8D	8d	.	.
8F#	8d	.	8.r
8F#	8d	.	.
.	.	.	16dd
=63	=63	=63	=63
8G	8d	2.r	[4e
8G	8d	.	.
8A	8c#	.	8e]
8A	8c#	.	16g
.	.	.	16f#
8AA	8c#	.	8g
8AA	8c#	.	16f#
.	.	.	16e
=64	=64	=64	=64
8D	8d	[2.a	8.f#
8D	8d	.	.
.	.	.	16e
8D	8f#	.	4d
8D	8f#	.	.
8D	8f#	.	4r
8D	8f#	.	.
=65	=65	=65	=65
8G	8d	16a]	[4b
.	.	16g	.
8G	8d	16f#	.
.	.	16g	.
8G	8d	[2g	16b]
.	.	.	16a
8G	8d	.	16b
.	.	.	16a
8E	16g	.	4b
.	16f#	.	.
8E	16e	.	.
.	16d	.	.
=66	=66	=66	=66
8F#	8c#	16g]	[4a
.	.	16f#	.
8F#	8c#	16e	.
.	.	16f#	.
8F#	8c#	[2f#	16a]
.	.	.	16g
8F#	8c#	.	16f#
.	.	.	16g
8D	16f#	.	4a
.	16e	.	.
8D	16d	.	.
.	16c#	.	.
=67	=67	=67	=67
8E	8B	16f#]	[4g
.	.	16e	.
8E	8B	16d	.
.	.	16e	.
8E	8B	[2e	16g]
.	.	.	16f#
8E	8B	.	16e
.	.	.	16f#
8C#	16e	.	4g
.	16d	.	.
8C#	16c#	.	.
.	16B	.	.
=68	=68	=68	=68
8D	8A	16e]	[4f#
.	.	16d	.
8D	8A	16c#	.
.	.	16d	.
8D	8A	4d	16f#]
.	.	.	16e
8D	8A	.	16d
.	.	.	16e
8D	8d	16d	16f#
.	.	16f#	16a
8D	8d	16e	16g
.	.	16d	16f#
=69	=69	=69	=69
8AA	8A	4d	4f#
8AA	8A	.	.
8A	8A	4c#	4e
8A	8A	.	.
8G	8c#	4r	4r
8G	8c#	.	.
=70	=70	=70	=70
8F#	8d	2.r	[4aa
8F#	8d	.	.
8F#	8d	.	16aa]
.	.	.	16ddd
8F#	8d	.	16ccc#
.	.	.	16eee
8F#	8d	.	16ddd
.	.	.	16fff#
8F#	8d	.	16ff#
.	.	.	16aa
=71	=71	=71	=71
8E	8e	4dd	8.gg
8E	8e	.	.
.	.	.	16ff#
8E	8e	16dd	[2gg
.	.	16gg	.
8E	8e	16ff#	.
.	.	16aa	.
8E	8e	16gg	.
.	.	16bb	.
8E	8e	16b	.
.	.	16dd	.
=72	=72	=72	=72
8AA	8A	8.cc#	4gg]
8AA	8A	.	.
.	.	16b	.
8AA	8A	2cc#	16gg
.	.	.	16ccc#
8AA	8A	.	16ccc#
.	.	.	16eee
8AA	8A	.	16eee
.	.	.	16ccc#
8AA	8A	.	16aa
.	.	.	16gg
=73	=73	=73	=73
8D	8d	4cc#	8.ff#
8D	8d	.	.
.	.	.	16ee
8D	8d	16cc#	[2ff#
.	.	16ff#	.
8D	8d	16ff#	.
.	.	16aa	.
8D	8d	16aa	.
.	.	16ff#	.
8D	8d	16dd	.
.	.	16cc#	.
=74	=74	=74	=74
8G	8g	8.b	4ff#]
8GG	8G	.	.
.	.	16a	.
8GG	8G	2b	16ff#
.	.	.	16ee
8GG	8G	.	16gg
.	.	.	16ff#
8GG#	8G#	.	8bb
8GG#	8G#	.	8dd
=75	=75	=75	=75
8AA	4A	16a	4cc#
.	.	16ee	.
8AA	.	16ee	.
.	.	16cc#	.
8AA	2g	16cc#	4..cc#
.	.	16a	.
8AA	.	16a	.
.	.	16e	.
8AA	.	16e	.
.	.	16c#	.
8AA	.	16c#	.
.	.	16A	32dd
.	.	.	32ee
=76	=76	=76	=76
8AA	4f#	16d	4dd
.	.	16dd	.
8AA	.	16dd	.
.	.	16a	.
8AA	4.f#	16a	4..dd
.	.	16f#	.
8AA	.	16f#	.
.	.	16d	.
8AA	.	16a	.
.	.	16f#	.
8AA	8d	16f#	.
.	.	16d	32ee
.	.	.	32ff#
=77	=77	=77	=77
8AA	4c#	16A	4ee
.	.	16ee	.
8AA	.	16ee	.
.	.	16cc#	.
8AA	[4c#	16cc#	4..ee
.	.	16a	.
8AA	.	16a	.
.	.	16e	.
8AA	8.c#]	16e	.
.	.	16c#	.
8AA	.	16c#	.
.	32d	16A	32ff#
.	32e	.	32gg
=78	=78	=78	=78
4D	4d	4d	16ff#
.	.	.	16ddd
.	.	.	16ddd
.	.	.	16aa
4r	4r	4r	16aa
.	.	.	16ff#
.	.	.	16ff#
.	.	.	16dd
4AA	16c#	16a	16a
.	16e	16cc#	16gg
.	16e	16cc#	16gg
.	16e	16cc#	16gg
=79	=79	=79	=79
4D	4d	4dd	16ff#
.	.	.	16ddd
.	.	.	16ddd
.	.	.	16aa
4r	4r	4r	16aa
.	.	.	16ff#
.	.	.	16ff#
.	.	.	16dd
4AA	16c#	16a	16a
.	16e	16cc#	16gg
.	16e	16cc#	16gg
.	16e	16cc#	16gg
=80	=80	=80	=80
4D	4d	4dd	16ff#
.	.	.	16aa
.	.	.	16gg
.	.	.	16ff#
2r	2r	2r	16gg
.	.	.	16aa
.	.	.	16bb
.	.	.	16ccc#
.	.	.	4ddd
=81	=81	=81	=81
8G	8g	8dd	8bb
8G	8g	16bb	16ggg
.	.	16gg	16eee
8A	8a	8ff#	4ddd
8A	8a	16ee	.
.	.	16dd	.
8AA	8A	4cc#	4eee
8AA	8A	.	.
=82	=82	=82	=82
8D	4.d	4.dd	4ddd
8D	.	.	.
8D	.	.	2r
8D	16b	16dd	.
.	16a	16cc#	.
8D	16a	16cc#	.
.	16g	16b	.
8D	16g	16b	.
.	16f#	16a	.
=83	=83	=83	=83
8D	16f#	16a	4r
.	16e	16g	.
8D	16e	16g	.
.	16d	16f#	.
8D	4d	16f#	16r
.	.	16gg	16bb
8D	.	16gg	16bb
.	.	16ff#	16aa
8D	4r	16ff#	16aa
.	.	16ee	16gg
8D	.	16ee	16gg
.	.	16dd	16ff#
=84	=84	=84	=84
4B	4b	4dd	4ff#
4G#	4b	4dd	4ee
4r	4r	4r	4r
=85	=85	=85	=85
8A	8a	4dd	[4ee
8A	8a	.	.
8A	8a	8cc#	8ee]
8A	8a	8cc#	16gg
.	.	.	16ff#
8A	8a	8cc#	8gg
8A	8a	8cc#	16ff#
.	.	.	16ee
=86	=86	=86	=86
8D	16a	16dd	4dd
.	16f#	16a	.
8D	16e	16g	.
.	16d	16f#	.
8D	2e	2g	16r
.	.	.	16b
8D	.	.	16gg
.	.	.	16ff#
8D	.	.	16gg
.	.	.	16ee
8D	.	.	16dd
.	.	.	16cc#
=87	=87	=87	=87
8D	16A	16f#	4dd
.	16f#	16a	.
8D	16e	16g	.
.	16d	16f#	.
8D	2e	2g	16r
.	.	.	16B
8D	.	.	16g
.	.	.	16f#
8D	.	.	16g
.	.	.	16e
8D	.	.	16d
.	.	.	16c#
=88	=88	=88	=88
2.DD	2A	2f#	2d
.	4r	4r	4r
==	==	==	==
*-	*-	*-	*-
!!!RWG1: This file contains only pitch and duration data.
!!!RWG2: Transposing instruments are not transposed.
!!!RWG3: Spines may have incompatible meters.
!!!RWG4: Durations of rests and tied notes may be interpreted.
!!!RWG: Key is interpreted using the Humdrum key tool.
!!!GTL: 10 Divertimentos
!!!AFT: stage1
!!!END: 1997/04/15
!!!KEY: 1016978189
!!!EMD: Converted from MuseData to Humdrum Dec 16, 2000, by Andreas Kornstaedt using muse2kern.
!!!EMD: Manual editing by Craig Sapp, Nov 2001
